X:1
T:Calming Lo-fi Melody
M:4/4
L:1/8
K:Dm
D2|A,2A,2 D2F2|A2A2 G2F2|E2D2 C2D2|E2F2 D2z2|
A,2A,2 D2F2|A2A2 G2F2|E2D2 C2D2|E2F2 D2z2||
```

This creates a relaxing lo-fi sound that's great for studying or background noise. The melody is simple and doesn't include any difficult or jarring notes.